X: 1230
T: The Templehouse
M:C|
L:1/8
R:Reel
B:O'Neill's 1230
N:Collected by F. O'Neill
Z:Transcribed by Trish O'Neil
K:G
EFGE BE (3GFE | D2(3FED A>D (3FED | EFGA BAB^c | dBAc TBEE2 :|
g2efg2eg | f^dde fddf | gfef gfeg | fgaf bgef |
gfef gfeg | f^dde fddf | efge afge | dBAc TBEE2 |]


